X: 42005
T: Walsh's
R: polka
M: 2/4
K: Dmajor
|:a2 af/a/|ba f/g/a|g2 B/c/d|ed c/B/A|
a2 af/a/|ba fa|g2 B/c/d|1 ed df:|2 ed de||
|:ef fe|dc BA|gg/f/ ga|ba f/g/a|
f2 fe|dc BA|g2 B/c/d|1 ed de:|2 ed df||

